X: 173
T: No_95_Song_of_the_Deer_(a).krn
%%abc-version 2.0
%%abcx-abcm2ps-target-version 5.9.1 (29 Sep 2008)
%%abc-creator hum2abc beta
%%abcx-conversion-date 2020/08/10 18:54:57
%%gracespace 0 6 6
%%humdrum-veritas 2152990748
%%humdrum-veritas-data 3223514233
%%linebreak <none>
%%barnumbers 0
L: 1/8
M: 2/4
%%staves {1 2}
V: 1 clef=bass
V: 2 clef=bass
K: B
[V:1] [K:clef=bass][M:2/4]DD B,B, | 
[V:2] [K:clef=bass][M:2/4]G,,G,, G,,G,, | 
[V:1] DDC2 ||  
[V:2] G,,G,, G,,G,, ||  
[V:1] [M:3/4]G,/>G,/G,G,2G,2 ||  
[V:2] [M:3/4]z6 ||  
[V:1] [M:2/4]CC CB, | 
[V:2] [M:2/4]z4 | 
[V:1] CB,G,2 ||  
[V:2] z4 ||  
[V:1] [M:3/4]D,/>D,/D,D,2D,2 ||  
[V:2] [M:3/4]z6 ||  
[V:1] [M:2/4]G,G, G,F, | 
[V:2] [M:2/4]z4 | 
[V:1] G,G,G,2 | 
[V:2] z4 | 
[V:1] D,/>D,/D,D,2 | 
[V:2] z4 | 
[V:1] D,2D,D, ||  
[V:2] z4 ||  
[V:1] [M:3/4]D,4-D,3/D,/ ||  
[V:2] [M:3/4]z6 ||  
[V:1] [M:2/4]D,2D,D, ||  
[V:2] [M:2/4]z4 ||  
[V:1] [M:3/4]D,4-D,3/D,/ | 
[V:2] [M:3/4]z6 | 
[V:1] D,6 |]  
[V:2] z6 |]  


